icons/evolvere-blue-folders-flat-vivid-dark-fallback/devices/64/drive-optical.svg

<?xml version="1.0" encoding="UTF-8" standalone="no"?>
<!-- Created with Inkscape (http://www.inkscape.org/) -->

<svg
   xmlns:dc="http://purl.org/dc/elements/1.1/"
   xmlns:cc="http://creativecommons.org/ns#"
   xmlns:rdf="http://www.w3.org/1999/02/22-rdf-syntax-ns#"
   xmlns:svg="http://www.w3.org/2000/svg"
   xmlns="http://www.w3.org/2000/svg"
   xmlns:sodipodi="http://sodipodi.sourceforge.net/DTD/sodipodi-0.dtd"
   xmlns:inkscape="http://www.inkscape.org/namespaces/inkscape"
   width="64"
   height="64"
   id="svg13094"
   version="1.1"
   inkscape:version="0.91+devel r"
   sodipodi:docname="drive-optical.svg">
  <sodipodi:namedview
     id="base"
     pagecolor="#ffffff"
     bordercolor="#666666"
     borderopacity="1.0"
     inkscape:pageopacity="0"
     inkscape:pageshadow="2"
     inkscape:zoom="8.0000004"
     inkscape:cx="10.156623"
     inkscape:cy="30.594868"
     inkscape:document-units="px"
     inkscape:current-layer="svg13094"
     showgrid="true"
     inkscape:snap-bbox="true"
     inkscape:bbox-paths="true"
     inkscape:bbox-nodes="true"
     inkscape:snap-bbox-edge-midpoints="true"
     inkscape:snap-bbox-midpoints="true"
     inkscape:object-paths="true"
     inkscape:snap-intersection-paths="true"
     inkscape:object-nodes="true"
     inkscape:snap-smooth-nodes="true"
     inkscape:snap-midpoints="true"
     inkscape:snap-object-midpoints="true"
     inkscape:snap-center="true"
     showguides="true"
     inkscape:guide-bbox="true"
     inkscape:window-width="1920"
     inkscape:window-height="1023"
     inkscape:window-x="-10"
     inkscape:window-y="35"
     inkscape:window-maximized="1"
     inkscape:snap-global="false"
     fit-margin-top="0"
     fit-margin-left="0"
     fit-margin-right="0"
     fit-margin-bottom="0"
     showborder="true"
     inkscape:showpageshadow="false"
     inkscape:snap-page="true">
    <inkscape:grid
       type="xygrid"
       id="grid3075"
       empspacing="5"
       visible="true"
       enabled="true"
       snapvisiblegridlinesonly="true"
       originx="1.6362304e-08px"
       originy="18px" />
  </sodipodi:namedview>
  <defs
     id="defs13096" />
  <metadata
     id="metadata13099">
    <rdf:RDF>
      <cc:Work
         rdf:about="">
        <dc:format>image/svg+xml</dc:format>
        <dc:type
           rdf:resource="http://purl.org/dc/dcmitype/StillImage" />
        <dc:title></dc:title>
      </cc:Work>
    </rdf:RDF>
  </metadata>
  <path
     id="path3989"
     d="M 0,3.90625 0,57.5 0.09375,57.59375 C 0.0402232,57.753417 0,57.92673 0,58.09375 l 0,2.8125 C 0,62.611986 2.899,64 6.5,64 l 51,0 c 3.601,0 6.5,-1.388014 6.5,-3.09375 l 0,-2.8125 c 0,-0.16702 -0.04022,-0.340333 -0.09375,-0.5 L 64,57.5 64,3.90625 z"
     style="color:#000000;fill:#43556a;fill-opacity:1;fill-rule:nonzero;stroke:none;stroke-width:2.28571415;marker:none;visibility:visible;display:inline;overflow:visible;enable-background:accumulate;opacity:1;stroke-linecap:butt;stroke-linejoin:miter;stroke-miterlimit:4;stroke-dasharray:none;stroke-dashoffset:0;stroke-opacity:1"
     inkscape:connector-curvature="0"
     sodipodi:nodetypes="cccsssssscccc" />
  <path
     style="fill:#1f0700;fill-opacity:0.06978802;fill-rule:nonzero"
     d="M 6.5,0 C 4.5972927,0 2.9053782,0.38675065 1.71875,1 L 32,1 62.28125,1 C 61.094622,0.38675065 59.402707,0 57.5,0 L 32,0 z"
     id="path4444"
     inkscape:connector-curvature="0"
     sodipodi:nodetypes="scccscs" />
  <path
     inkscape:connector-curvature="0"
     id="path4019"
     d="m 6.5,0 51,0 C 61.101,0 64,1.3732106 64,3.0789476 l 0,0.842105 C 64,5.6267895 61.101,7 57.5,7 L 6.5,7 C 2.899,7 1.6362304e-8,5.6267895 1.6362304e-8,3.9210526 l 0,-0.842105 C 1.6362304e-8,1.3732106 2.899,0 6.5,0 z"
     style="color:#000000;fill:#94a7bc;fill-opacity:1;fill-rule:nonzero;stroke:none;stroke-width:0.62299293;marker:none;visibility:visible;display:inline;overflow:visible;enable-background:accumulate;opacity:1;stroke-linecap:butt;stroke-linejoin:miter;stroke-miterlimit:4;stroke-dasharray:none;stroke-dashoffset:0;stroke-opacity:1"
     sodipodi:nodetypes="sssssssss" />
  <path
     inkscape:connector-curvature="0"
     id="path3919"
     d="m 12,2.3684211 40,0 c 1.108,0 2,0.4225263 2,0.9473684 l 0,0.368421 c 0,0.5248421 -0.892,0.9473684 -2,0.9473684 l -40,0 c -1.108,0 -2,-0.4225263 -2,-0.9473684 l 0,-0.368421 c 0,-0.5248421 0.892,-0.9473684 2,-0.9473684 z"
     style="color:#000000;fill:#43556a;fill-opacity:1;fill-rule:nonzero;stroke:none;stroke-width:2.28571415;marker:none;visibility:visible;display:inline;overflow:visible;enable-background:accumulate;opacity:1;stroke-linecap:butt;stroke-linejoin:miter;stroke-miterlimit:4;stroke-dasharray:none;stroke-dashoffset:0;stroke-opacity:1"
     sodipodi:nodetypes="sssssssss" />
  <path
     style="color:#000000;fill:#162f4d;fill-opacity:0.35241502;fill-rule:nonzero;stroke:none;stroke-width:0.62299293;marker:none;visibility:visible;display:inline;overflow:visible;enable-background:accumulate;opacity:1;stroke-linecap:butt;stroke-linejoin:miter;stroke-miterlimit:4;stroke-dasharray:none;stroke-dashoffset:0;stroke-opacity:1"
     d="M 52 7 L 52 9 L 52 19 L 52 22.65625 C 53.900173 26.002817 55 29.876614 55 34 C 55 38.123386 53.900173 41.997183 52 45.34375 L 52 46 L 52 49 L 52 54 L 52 60 L 52 64 L 54 64 L 54 54 L 54 49 L 54 46 C 54 45.964696 53.972285 45.940589 53.96875 45.90625 C 55.890842 42.364923 57 38.309736 57 34 C 57 29.645456 55.863781 25.565368 53.90625 22 L 54 22 L 54 7 L 52 7 z "
     id="rect3950" />
  <path
     style="color:#000000;fill:#779dc9;fill-opacity:0.23076926;fill-rule:nonzero;stroke:none;stroke-width:0.62299293;marker:none;visibility:visible;display:inline;overflow:visible;enable-background:accumulate;opacity:1;stroke-linecap:butt;stroke-linejoin:miter;stroke-miterlimit:4;stroke-dasharray:none;stroke-dashoffset:0;stroke-opacity:1"
     d="M 10 7 L 10 22 L 10.09375 22 C 8.1362188 25.565368 7 29.645456 7 34 C 7 38.309736 8.1091579 42.364923 10.03125 45.90625 C 10.027715 45.940589 10 45.964696 10 46 L 10 49 L 10 53 L 10 64 L 12 64 L 12 60 L 12 53 L 12 49 L 12 46 L 12 45.34375 C 10.099827 41.997183 9 38.123386 9 34 C 9 29.876614 10.099827 26.002817 12 22.65625 L 12 19 L 12 9 L 12 7 L 10 7 z "
     id="rect3985" />
  <ellipse
     cy="3.0208323"
     cx="4.9999995"
     style="color:#000000;display:inline;overflow:visible;visibility:visible;fill:#43556a;fill-opacity:1;fill-rule:evenodd;stroke:none;stroke-width:2.28571415;marker:none;enable-background:accumulate;opacity:1;stroke-linecap:butt;stroke-linejoin:miter;stroke-miterlimit:4;stroke-dasharray:none;stroke-dashoffset:0;stroke-opacity:1"
     id="path4104"
     rx="2.0000005"
     ry="1.0000004" />
  <path
     style="color:#000000;display:inline;overflow:visible;visibility:visible;fill:#c9fc0b;fill-opacity:1;fill-rule:evenodd;stroke:none;stroke-width:0.08332422;marker:none;enable-background:accumulate;opacity:1;stroke-linecap:butt;stroke-linejoin:miter;stroke-miterlimit:4;stroke-dasharray:none;stroke-dashoffset:0;stroke-opacity:1"
     d="M 6,3.3541657 C 6,3.6303082 5.5522845,3.854166 4.9999996,3.854166 c -0.5522849,0 -1.0000002,-0.2238578 -1.0000002,-0.5000003 0,-0.2761425 0.4477153,-0.8333336 1.0000002,-0.8333336 C 5.5522845,2.5208321 6,3.0780232 6,3.3541657 Z"
     id="path4110"
     inkscape:connector-curvature="0"
     sodipodi:nodetypes="sssss" />
  <g
     id="g3219"
     transform="matrix(0.75,0,0,0.75,8,9.203125)">
    <g
       transform="matrix(1.0010238,0,0,1.0010238,-0.06143058,-1.0257261)"
       id="g4151">
      <path
         inkscape:connector-curvature="0"
         id="path4409"
         d="m 32.03125,25 c -4.970564,0 -9,4.029435 -9,9 0,4.970565 4.029436,9 9,9 4.970564,0 9,-4.029435 9,-9 0,-4.970565 -4.029436,-9 -9,-9 z m 0,6.03125 C 33.679377,31.03125 35,32.351873 35,34 c 0,1.648127 -1.320623,2.96875 -2.96875,2.96875 -1.648127,0 -3,-1.320623 -3,-2.96875 0,-1.648127 1.351873,-2.96875 3,-2.96875 z"
         style="fill:#cbd9e1;fill-opacity:1;fill-rule:nonzero;stroke:none;opacity:1;stroke-width:0.99897725;stroke-linecap:butt;stroke-linejoin:miter;stroke-miterlimit:4;stroke-dasharray:none;stroke-dashoffset:0;stroke-opacity:1" />
      <path
         inkscape:connector-curvature="0"
         id="path4443"
         d="M 32.03125,6.03125 C 16.584532,6.03125 4.0625,18.553279 4.0625,34 c 0,15.446721 12.522032,27.96875 27.96875,27.96875 C 47.477968,61.96875 60,49.446721 60,34 60,18.553279 47.477968,6.03125 32.03125,6.03125 Z m 0,18.742947 c 5.121784,0 9.225803,4.104019 9.225803,9.225803 0,5.121784 -4.104019,9.225803 -9.225803,9.225803 -5.121784,0 -9.322917,-4.104019 -9.322917,-9.225803 0,-5.121784 4.201133,-9.225803 9.322917,-9.225803 z"
         style="opacity:1;fill:#a6bdc5;fill-opacity:1;fill-rule:nonzero;stroke:none;stroke-width:1;stroke-linecap:butt;stroke-linejoin:miter;stroke-miterlimit:4;stroke-dasharray:none;stroke-dashoffset:0;stroke-opacity:1" />
      <path
         style="color:#000000;display:inline;overflow:visible;visibility:visible;opacity:1;fill:#ffffff;fill-opacity:0.39177102;fill-rule:nonzero;stroke:none;stroke-width:1.24910724;stroke-linecap:butt;stroke-linejoin:miter;stroke-miterlimit:4;stroke-dasharray:none;stroke-dashoffset:0;stroke-opacity:1;marker:none;enable-background:accumulate"
         d="M 12.249781,14.212059 C 6.7829261,19.678913 4.0516651,26.845865 4.0572854,34.011049 l 18.6968976,0 c 0.02031,-2.369403 0.94068,-4.738616 2.748326,-6.546262 1.80517,-1.80517 4.153029,-2.709543 6.502067,-2.71518 l 0,-18.7300437 c -7.150464,0.00561 -14.299171,2.736871 -19.754795,8.1924957 z m 19.754795,29.049383 0,18.696898 c 7.165184,0.0056 14.332136,-2.725641 19.79899,-8.192496 5.455625,-5.455624 8.186885,-12.604331 8.192496,-19.754795 l -18.730044,0 c -0.0056,2.349038 -0.91001,4.696897 -2.71518,6.502067 -1.807646,1.807646 -4.176859,2.728016 -6.546262,2.748326 z"
         id="path4441"
         inkscape:connector-curvature="0" />
      <path
         inkscape:connector-curvature="0"
         id="path5170-6-3"
         d="m 32.015625,23 c -6.06921,0 -11,4.93079 -11,11 0,6.06921 4.93079,11 11,11 6.06921,0 11,-4.93079 11,-11 0,-6.06921 -4.93079,-11 -11,-11 z m 0,1 c 5.52877,0 10,4.47123 10,10 0,5.52877 -4.47123,10 -10,10 -5.52877,0 -10,-4.47123 -10,-10 0,-5.52877 4.47123,-10 10,-10 z"
         style="color:#000000;font-style:normal;font-variant:normal;font-weight:normal;font-stretch:normal;font-size:medium;line-height:normal;font-family:sans-serif;text-indent:0;text-align:start;text-decoration:none;text-decoration-line:none;text-decoration-style:solid;text-decoration-color:#000000;letter-spacing:normal;word-spacing:normal;text-transform:none;direction:ltr;block-progression:tb;writing-mode:lr-tb;baseline-shift:baseline;text-anchor:start;white-space:normal;shape-padding:0;clip-rule:nonzero;display:inline;overflow:visible;visibility:visible;opacity:1;isolation:auto;mix-blend-mode:normal;color-interpolation:sRGB;color-interpolation-filters:linearRGB;solid-color:#000000;solid-opacity:1;fill:#4a5462;fill-opacity:0.3828265;fill-rule:nonzero;stroke:none;stroke-width:1;stroke-linecap:butt;stroke-linejoin:miter;stroke-miterlimit:4;stroke-dasharray:none;stroke-dashoffset:0;stroke-opacity:1;color-rendering:auto;image-rendering:auto;shape-rendering:auto;text-rendering:auto;enable-background:accumulate" />
    </g>
    <path
       inkscape:connector-curvature="0"
       id="path5004"
       d="m 32,5 c -7.162447,-6e-7 -14.316488,2.7539878 -19.78125,8.21875 -10.9295244,10.929524 -10.9295261,28.632974 0,39.5625 0.331041,0.331041 0.656877,0.657763 1,0.96875 -9.9262298,-10.986288 -9.5879767,-27.943273 1,-38.53125 10.587977,-10.5879768 27.544962,-10.9262299 38.53125,-1 -0.310987,-0.343123 -0.637709,-0.668959 -0.96875,-1 C 46.316487,7.7539869 39.162447,5.0000006 32,5 Z"
       style="color:#000000;display:inline;overflow:visible;visibility:visible;fill:#264371;fill-opacity:0.14847943;fill-rule:nonzero;stroke:none;marker:none;enable-background:accumulate" />
  </g>
</svg>

<svg xmlns="http://www.w3.org/2000/svg" viewBox="0 0 64 64"><path d="m0 3.906v53.594l.094.094c-.054.16-.094.333-.094.5v2.813c0 1.706 2.899 3.094 6.5 3.094h51c3.601 0 6.5-1.388 6.5-3.094v-2.813c0-.167-.04-.34-.094-.5l.094-.094v-53.594z" color="#000" fill="#43556a"/><path d="m6.5 0c-1.903 0-3.595.387-4.781 1h30.28 30.28c-1.187-.613-2.879-1-4.781-1h-25.5z" fill="#1f0700" fill-opacity=".07"/><g color="#000"><path d="m6.5 0h51c3.601 0 6.5 1.373 6.5 3.079v.842c0 1.706-2.899 3.079-6.5 3.079h-51c-3.601 0-6.5-1.373-6.5-3.079v-.842c0-1.706 2.899-3.079 6.5-3.079" fill="#94a7bc"/><path d="m12 2.368h40c1.108 0 2 .423 2 .947v.368c0 .525-.892.947-2 .947h-40c-1.108 0-2-.423-2-.947v-.368c0-.525.892-.947 2-.947" fill="#43556a"/><path d="m52 7v2 10 3.656c1.9 3.347 3 7.22 3 11.344 0 4.123-1.1 7.997-3 11.344v.656 3 5 6 4h2v-10-5-3c0-.035-.028-.059-.031-.094 1.922-3.541 3.03-7.597 3.03-11.906 0-4.355-1.136-8.435-3.094-12h.094v-15h-2" fill-opacity=".352" fill="#162f4d"/><path d="m10 7v15h.094c-1.958 3.565-3.094 7.645-3.094 12 0 4.31 1.109 8.365 3.03 11.906-.004.034-.031.058-.031.094v3 4 11h2v-4-7-4-3-.656c-1.9-3.347-3-7.22-3-11.344 0-4.123 1.1-7.997 3-11.344v-3.656-10-2h-2" fill-opacity=".231" fill="#779dc9"/><g fill-rule="evenodd"><ellipse cy="3.02" cx="5" rx="2" ry="1" fill="#43556a"/><path d="m6 3.354c0 .276-.448.5-1 .5-.552 0-1-.224-1-.5 0-.276.448-.833 1-.833.552 0 1 .557 1 .833" fill="#c9fc0b"/></g></g><g transform="matrix(.75 0 0 .75 8 9.203)"><g transform="matrix(1.001 0 0 1.001-.061-1.026)"><path d="m32.03 25c-4.971 0-9 4.03-9 9 0 4.971 4.03 9 9 9 4.971 0 9-4.03 9-9 0-4.971-4.03-9-9-9m0 6.03c1.648 0 2.969 1.321 2.969 2.969 0 1.648-1.321 2.969-2.969 2.969-1.648 0-3-1.321-3-2.969 0-1.648 1.352-2.969 3-2.969" fill="#cbd9e1"/><path d="m32.03 6.03c-15.447 0-27.969 12.522-27.969 27.969 0 15.447 12.522 27.969 27.969 27.969 15.447 0 27.969-12.522 27.969-27.969 0-15.447-12.522-27.969-27.969-27.969m0 18.743c5.122 0 9.226 4.104 9.226 9.226 0 5.122-4.104 9.226-9.226 9.226-5.122 0-9.323-4.104-9.323-9.226 0-5.122 4.201-9.226 9.323-9.226z" fill="#a6bdc5"/><g color="#000"><path d="m12.25 14.212c-5.467 5.467-8.198 12.634-8.192 19.799h18.697c.02-2.369.941-4.739 2.748-6.546 1.805-1.805 4.153-2.71 6.502-2.715v-18.73c-7.15.006-14.299 2.737-19.755 8.192m19.755 29.05v18.697c7.165.006 14.332-2.726 19.799-8.192 5.456-5.456 8.187-12.604 8.192-19.755h-18.73c-.006 2.349-.91 4.697-2.715 6.502-1.808 1.808-4.177 2.728-6.546 2.748" fill-opacity=".392" fill="#fff"/><path d="m32.02 23c-6.069 0-11 4.931-11 11 0 6.069 4.931 11 11 11 6.069 0 11-4.931 11-11 0-6.069-4.931-11-11-11m0 1c5.529 0 10 4.471 10 10 0 5.529-4.471 10-10 10-5.529 0-10-4.471-10-10 0-5.529 4.471-10 10-10" shape-rendering="auto" mix-blend-mode="normal" color-interpolation-filters="linearRGB" isolation="auto" white-space="normal" fill="#4a5462" solid-opacity="1" image-rendering="auto" fill-opacity=".383" solid-color="#000000" color-rendering="auto" shape-padding="0" color-interpolation="sRGB"/></g></g><path d="m32 5c-7.162 0-14.316 2.754-19.781 8.219-10.93 10.93-10.93 28.633 0 39.563.331.331.657.658 1 .969-9.926-10.986-9.588-27.943 1-38.531 10.588-10.588 27.545-10.926 38.531-1-.311-.343-.638-.669-.969-1-5.465-5.465-12.619-8.219-19.781-8.219" fill="#264371" fill-opacity=".148" color="#000"/></g></svg>
